X: 1220
T: My Love is Fair and Handsome
M:C|
L:1/8
R:Reel
B:O'Neill's 1220
N:Collected by F. O'Neill
Z:Transcribed by Trish O'Neil
K:G
(ge) | dBAB GFEF | G2BG dGBe | dBAB GFED |1 Bee^d efge :|2 EGFAG2z2 ||
dega bgab | gfga gdBd | dega bgab | gafg efge |
dega bagf | gfef g3a | bagf gfed | (3efg dg efge |]


